X:009
T:Cooley's Hornpipe
M:4/4
L:1/8
C:Paddy O'Brien (Tipp.)
R:Hornpipe
Z:Cliff Moses
K:G
(3def|gG~G2 EGDC|B,G,B,D GBdg|~e2 ce ~d2 Bd| (3cBA BG ~A2 (3def|
gG~G2 EGDC|B,G,B,D GBdg|ecAG FAdc| ~B2 GF G2:||
GA|BGBd edBd|~g2 bg egdB|~c2 ge dGBd|cBA^G ~A2 dc|
BGDC B,DG=F| ~E2 CE DGBd|gfge dBcA|~B2 GF G2 :||
